X: 684
T: Jerusalem's Ridge
C:Kenny Baker
B: jims roots
B: ralph
M:4/4
L:1/8
Q: 1/4=100
K:Am
V:1 
%500
"Am"[G,2E2]z2[G,2E2]z2|[G,2E2][G,2E2][G,2E2]z2|[G,2E2]z2[G,2E2]z2|[G,2E2][G,2E2][G,2E2]z2||
|:A,"Am"B,CD E2 EF | EDCC DCED | A,B,CD EGAG | "E"EDCE "Am"DCA,G, |
A,B,CD E2 EF | EDCE DCEC | A,B,CD EGAG| [1 (3EG"E"E DC "Am"A,3G,:|
c2 [e2e2] "E"[e3e3]A | "Am"E2 A2 A2 A2 | EGAB cdcA | EGAB cecA|[1 G"E"EDC "Am"A,3D:|
"E"zG, (3B,CB, "Am"A,4:| [M:2/4]"Am"z4 [M:4/4]|: [P:D Part]e2 a2 a3g | a2 b2 c'4 | "C"eg2 ag4- | gc'ag edcd |
"Am"e2 a2 a2 ab | c'abc' ac'gd | e2 e2 edcd | "E"edcG "Am"A4 |
A3c AG E2 | D"C"E3 G EDCD | "E"ECDC "Am"A,4 | z2 (3DCB, A,4:|
V:2 G"E"EDC "Am"A,4||[P:C Part
|: z2 AG "Am"E4 | z2 (3EFE "D"D4 | z2 (3DED "C"C4 |
% abcbook-tune_id 6298c25dbb3b200ecf1de22f


% abcbook-boost 0
% abcbook-tablature 
% abcbook-transpose 
% abcbook-lastupdated 1665486251729
% abcbook-soundfonts 
% abcbook-repeats 1


